X: 20333
Q: "Slow."
M: 6/8
L: 1/16
K: D
d3e (fg) a2f2d2 | A3G (FE) D4D2 |\
c3BA2 e4 ed | c3BA2 e4e2 |\
a2c2d2 e2(dc)(BA) | c3dB2 A4 |]
e2 |\
e3fg2 a4 eg | f3ed2 {f}e4 ee |\
e3fg2 a4 eg | f3ed2 {f}e4 af |\
e2e2f2 g3ab2 | (af)(dB)(ge) {d}c4 ag |\
(fe)(dc)(BA) G2b2 (eg) | (fa)(fd)(ec) d4 |]


